modules/themify-icons/icons/arrow-circle-right.svg

<?xml version="1.0" encoding="utf-8"?>
<!-- Generated by IcoMoon.io -->
<!DOCTYPE svg PUBLIC "-//W3C//DTD SVG 1.1//EN" "http://www.w3.org/Graphics/SVG/1.1/DTD/svg11.dtd">
<svg version="1.1" xmlns="http://www.w3.org/2000/svg" xmlns:xlink="http://www.w3.org/1999/xlink" width="17" height="17" viewBox="0 0 17 17">
<g>
</g>
	<path d="M6.854 4.146l4.353 4.354-4.354 4.354-0.707-0.707 3.647-3.647-3.647-3.646 0.708-0.708zM17 8.5c0 4.687-3.813 8.5-8.5 8.5s-8.5-3.813-8.5-8.5 3.813-8.5 8.5-8.5 8.5 3.813 8.5 8.5zM16 8.5c0-4.136-3.364-7.5-7.5-7.5s-7.5 3.364-7.5 7.5 3.364 7.5 7.5 7.5 7.5-3.364 7.5-7.5z" fill="#000000" />
</svg>

<svg xmlns="http://www.w3.org/2000/svg" width="17" height="17" viewBox="0 0 17 17"><path d="M6.854 4.146L11.207 8.5l-4.354 4.354-.707-.707L9.793 8.5 6.146 4.854l.708-.708zM17 8.5c0 4.687-3.813 8.5-8.5 8.5S0 13.187 0 8.5 3.813 0 8.5 0 17 3.813 17 8.5zm-1 0C16 4.364 12.636 1 8.5 1S1 4.364 1 8.5 4.364 16 8.5 16 16 12.636 16 8.5z"/></svg>
